;FLAVOR:Marlin
;TIME:26468
;Filament used: 17.3092m
;Layer height: 0.2
;MINX:58.2
;MINY:45.2
;MINZ:0.2
;MAXX:155.8
;MAXY:177.8
;MAXZ:53
;Generated with Cura_SteamEngine main
M140 S50
M105
M190 S50
M104 S200
M105
M109 S200
M82 ;absolute extrusion mode
M201 X500.00 Y500.00 Z100.00 E5000.00 ;Setup machine max acceleration
M203 X500.00 Y500.00 Z10.00 E50.00 ;Setup machine max feedrate
M204 P500.00 R1000.00 T500.00 ;Setup Print/Retract/Travel acceleration
M205 X8.00 Y8.00 Z0.40 E5.00 ;Setup Jerk
M220 S100 ;Reset Feedrate
M221 S100 ;Reset Flowrate

G28 ;Home
G29 ;Auto Bed Leveling
M420 S1 Z2 ;Enable ABL using saved Mesh and Fade Height

G92 E0 ;Reset Extruder
G1 Z2.0 F3000 ;Move Z Axis up
G1 X10.1 Y20 Z0.28 F5000.0 ;Move to start position
G1 X10.1 Y200.0 Z0.28 F1500.0 E15 ;Draw the first line
G1 X10.4 Y200.0 Z0.28 F5000.0 ;Move to side a little
G1 X10.4 Y20 Z0.28 F1500.0 E30 ;Draw the second line
G92 E0 ;Reset Extruder
G1 Z2.0 F3000 ;Move Z Axis up
G92 E0
G92 E0
G1 F2700 E-5
;LAYER_COUNT:265
;LAYER:0
M107
G0 F6000 X60.503 Y49.435 Z0.2
G0 X58.204 Y55.999
;TYPE:SKIRT
G1 F2700 E0
G1 F1200 X58.241 Y55.245 E0.02511
G1 X58.271 Y54.936 E0.03543
G1 X58.385 Y54.16 E0.06152
G1 X58.446 Y53.855 E0.07187
G1 X58.627 Y53.133 E0.09662
G1 X58.738 Y52.765 E0.10941
G1 X59.155 Y51.682 E0.14801
G1 X59.321 Y51.331 E0.16092
G1 X59.672 Y50.672 E0.18575
G1 X59.83 Y50.407 E0.19602
G1 X60.271 Y49.747 E0.22242
G1 X60.503 Y49.435 E0.23535
G1 X61.247 Y48.574 E0.2732
G1 X61.574 Y48.247 E0.28858
G1 X62.435 Y47.503 E0.32642
G1 X62.747 Y47.271 E0.33936
G1 X63.407 Y46.83 E0.36576
G1 X63.672 Y46.672 E0.37602
G1 X64.331 Y46.321 E0.40085
G1 X64.682 Y46.155 E0.41377
G1 X65.765 Y45.738 E0.45236
G1 X66.133 Y45.627 E0.46515
G1 X66.867 Y45.444 E0.49031
G1 X67.25 Y45.368 E0.5033
G1 X68.382 Y45.229 E0.54123
G1 X69.151 Y45.2 E0.56682
G1 X145.002 Y45.204 E3.08964
G1 X145.758 Y45.241 E3.11481
G1 X146.066 Y45.271 E3.12511
G1 X146.84 Y45.385 E3.15113
G1 X147.145 Y45.446 E3.16147
G1 X147.867 Y45.627 E3.18623
G1 X148.235 Y45.738 E3.19901
G1 X149.318 Y46.155 E3.23761
G1 X149.669 Y46.321 E3.25053
G1 X150.328 Y46.672 E3.27536
G1 X150.593 Y46.83 E3.28562
G1 X151.253 Y47.271 E3.31202
G1 X151.565 Y47.503 E3.32495
G1 X152.426 Y48.247 E3.3628
G1 X152.753 Y48.574 E3.37818
G1 X153.492 Y49.428 E3.41575
G1 X153.723 Y49.738 E3.4286
G1 X154.171 Y50.408 E3.45541
G1 X154.33 Y50.675 E3.46575
G1 X154.676 Y51.324 E3.49021
G1 X154.841 Y51.672 E3.50302
G1 X155.26 Y52.76 E3.5418
G1 X155.372 Y53.131 E3.55469
G1 X155.556 Y53.867 E3.57992
G1 X155.632 Y54.25 E3.59291
G1 X155.771 Y55.382 E3.63084
G1 X155.8 Y56.151 E3.65643
G1 X155.796 Y166.001 E7.31006
G1 X155.759 Y166.755 E7.33517
G1 X155.729 Y167.064 E7.34549
G1 X155.615 Y167.84 E7.37158
G1 X155.554 Y168.145 E7.38193
G1 X155.373 Y168.867 E7.40668
G1 X155.262 Y169.235 E7.41947
G1 X154.845 Y170.318 E7.45807
G1 X154.679 Y170.669 E7.47098
G1 X154.328 Y171.328 E7.49581
G1 X154.17 Y171.593 E7.50608
G1 X153.729 Y172.253 E7.53248
G1 X153.497 Y172.565 E7.54541
G1 X152.753 Y173.426 E7.58326
G1 X152.426 Y173.753 E7.59864
G1 X151.565 Y174.497 E7.63648
G1 X151.253 Y174.729 E7.64942
G1 X150.593 Y175.17 E7.67582
G1 X150.328 Y175.328 E7.68608
G1 X149.677 Y175.676 E7.71063
G1 X149.327 Y175.842 E7.72351
G1 X148.231 Y176.263 E7.76256
G1 X147.862 Y176.374 E7.77538
G1 X147.133 Y176.556 E7.80037
G1 X146.75 Y176.632 E7.81336
G1 X145.618 Y176.771 E7.85129
G1 X144.85 Y176.8 E7.87685
G1 X136.799 Y176.801 E8.14463
G1 X136.439 Y177.001 E8.15833
G1 X135.714 Y177.313 E8.18458
G1 X134.961 Y177.55 E8.21084
G1 X134.187 Y177.709 E8.23712
G1 X133.402 Y177.79 E8.26336
G1 X133 Y177.8 E8.27674
G1 X81 Y177.8 E10.00627
G1 X80.211 Y177.76 E10.03254
G1 X79.431 Y177.641 E10.05879
G1 X78.666 Y177.443 E10.08507
G1 X77.926 Y177.169 E10.11131
G1 X77.183 Y176.8 E10.13891
G1 X69.151 Y176.8 E10.40605
G1 X68.382 Y176.771 E10.43165
G1 X67.25 Y176.632 E10.46958
G1 X66.867 Y176.556 E10.48257
G1 X66.138 Y176.374 E10.50756
G1 X65.769 Y176.263 E10.52037
G1 X64.673 Y175.842 E10.55942
G1 X64.323 Y175.676 E10.57231
G1 X63.672 Y175.328 E10.59686
G1 X63.407 Y175.17 E10.60712
G1 X62.747 Y174.729 E10.63352
G1 X62.435 Y174.497 E10.64645
G1 X61.574 Y173.753 E10.6843
G1 X61.247 Y173.426 E10.69968
G1 X60.503 Y172.565 E10.73753
G1 X60.271 Y172.253 E10.75046
G1 X59.83 Y171.593 E10.77686
G1 X59.672 Y171.328 E10.78712
G1 X59.321 Y170.669 E10.81196
G1 X59.155 Y170.318 E10.82487
G1 X58.738 Y169.235 E10.86347
G1 X58.627 Y168.867 E10.87625
G1 X58.444 Y168.133 E10.90141
G1 X58.368 Y167.75 E10.9144
G1 X58.229 Y166.618 E10.95233
G1 X58.2 Y165.849 E10.97793
G1 X58.204 Y55.999 E14.63156
G0 F6000 X58.604 Y55.999
G1 F1200 X58.639 Y55.284 E14.65537
G1 X58.669 Y54.975 E14.66569
G1 X58.778 Y54.239 E14.69044
G1 X58.839 Y53.934 E14.70078
G1 X59.01 Y53.248 E14.7243
G1 X59.121 Y52.88 E14.73708
G1 X59.516 Y51.853 E14.77368
G1 X59.682 Y51.502 E14.78659
G1 X60.016 Y50.876 E14.81019
G1 X60.174 Y50.611 E14.82045
G1 X60.592 Y49.985 E14.84549
G1 X60.824 Y49.673 E14.85842
G1 X61.529 Y48.856 E14.89431
G1 X61.856 Y48.529 E14.90969
G1 X62.673 Y47.824 E14.94559
G1 X62.985 Y47.592 E14.95852
G1 X63.611 Y47.174 E14.98355
G1 X63.876 Y47.016 E14.99382
G1 X64.502 Y46.682 E15.01741
G1 X64.853 Y46.516 E15.03033
G1 X65.88 Y46.121 E15.06693
G1 X66.248 Y46.01 E15.07971
G1 X66.945 Y45.837 E15.1036
G1 X67.328 Y45.761 E15.11658
G1 X68.401 Y45.628 E15.15254
G1 X69.151 Y45.6 E15.17751
G1 X145.002 Y45.604 E17.70032
G1 X145.719 Y45.639 E17.7242
G1 X146.027 Y45.669 E17.73449
G1 X146.761 Y45.778 E17.75917
G1 X147.066 Y45.839 E17.76952
G1 X147.752 Y46.01 E17.79303
G1 X148.12 Y46.121 E17.80582
G1 X149.147 Y46.516 E17.84241
G1 X149.498 Y46.682 E17.85533
G1 X150.124 Y47.016 E17.87893
G1 X150.389 Y47.174 E17.88919
G1 X151.015 Y47.592 E17.91422
G1 X151.327 Y47.824 E17.92715
G1 X152.144 Y48.529 E17.96305
G1 X152.471 Y48.856 E17.97843
G1 X153.172 Y49.667 E18.01408
G1 X153.403 Y49.977 E18.02694
G1 X153.827 Y50.613 E18.05236
G1 X153.986 Y50.88 E18.0627
G1 X154.314 Y51.496 E18.08591
G1 X154.479 Y51.844 E18.09872
G1 X154.877 Y52.875 E18.13548
G1 X154.989 Y53.246 E18.14837
G1 X155.163 Y53.945 E18.17233
G1 X155.239 Y54.328 E18.18531
G1 X155.372 Y55.401 E18.22127
G1 X155.4 Y56.151 E18.24624
G1 X155.396 Y166.001 E21.89986
G1 X155.361 Y166.716 E21.92367
G1 X155.331 Y167.025 E21.934
G1 X155.222 Y167.761 E21.95874
G1 X155.161 Y168.066 E21.96909
G1 X154.99 Y168.752 E21.9926
G1 X154.879 Y169.12 E22.00539
G1 X154.484 Y170.147 E22.04199
G1 X154.318 Y170.498 E22.0549
G1 X153.984 Y171.124 E22.0785
G1 X153.826 Y171.389 E22.08876
G1 X153.408 Y172.015 E22.1138
G1 X153.176 Y172.327 E22.12673
G1 X152.471 Y173.144 E22.16262
G1 X152.144 Y173.471 E22.178
G1 X151.327 Y174.176 E22.21389
G1 X151.015 Y174.408 E22.22682
G1 X150.389 Y174.826 E22.25186
G1 X150.124 Y174.984 E22.26212
G1 X149.505 Y175.314 E22.28545
G1 X149.155 Y175.48 E22.29834
G1 X148.116 Y175.88 E22.33537
G1 X147.747 Y175.991 E22.34818
G1 X147.055 Y176.163 E22.3719
G1 X146.672 Y176.239 E22.38489
G1 X145.599 Y176.372 E22.42085
G1 X144.85 Y176.4 E22.44578
G1 X136.709 Y176.401 E22.71655
G1 X136.064 Y176.736 E22.74072
G1 X135.349 Y177.017 E22.76627
G1 X134.607 Y177.223 E22.79189
G1 X133.849 Y177.351 E22.81745
G1 X133 Y177.4 E22.84574
G1 X81 Y177.4 E24.57527
G1 X80.232 Y177.36 E24.60084
G1 X79.472 Y177.241 E24.62643
G1 X78.729 Y177.043 E24.652
G1 X78.01 Y176.769 E24.6776
G1 X77.29 Y176.4 E24.70451
G1 X69.151 Y176.4 E24.97521
G1 X68.401 Y176.372 E25.00017
G1 X67.328 Y176.239 E25.03613
G1 X66.945 Y176.163 E25.04912
G1 X66.253 Y175.991 E25.07284
G1 X65.884 Y175.88 E25.08565
G1 X64.845 Y175.48 E25.12268
G1 X64.495 Y175.314 E25.13557
G1 X63.876 Y174.984 E25.1589
G1 X63.611 Y174.826 E25.16916
G1 X62.985 Y174.408 E25.1942
G1 X62.673 Y174.176 E25.20713
G1 X61.856 Y173.471 E25.24302
G1 X61.529 Y173.144 E25.2584
G1 X60.824 Y172.327 E25.29429
G1 X60.592 Y172.015 E25.30722
G1 X60.174 Y171.389 E25.33226
G1 X60.016 Y171.124 E25.34252
G1 X59.682 Y170.498 E25.36612
G1 X59.516 Y170.147 E25.37903
G1 X59.121 Y169.12 E25.41563
G1 X59.01 Y168.752 E25.42842
G1 X58.837 Y168.055 E25.4523
G1 X58.761 Y167.672 E25.46529
G1 X58.628 Y166.599 E25.50125
G1 X58.6 Y165.849 E25.52621
G1 X58.604 Y55.999 E29.17984
G0 F6000 X59.004 Y55.999
G1 F1200 X59.037 Y55.323 E29.20235
G1 X59.067 Y55.014 E29.21267
G1 X59.17 Y54.317 E29.23611
G1 X59.231 Y54.012 E29.24645
G1 X59.393 Y53.364 E29.26867
G1 X59.504 Y52.996 E29.28145
G1 X59.878 Y52.024 E29.31609
G1 X60.044 Y51.673 E29.32901
G1 X60.36 Y51.081 E29.35133
G1 X60.518 Y50.816 E29.36159
G1 X60.913 Y50.224 E29.38526
G1 X61.145 Y49.912 E29.39819
G1 X61.812 Y49.139 E29.43215
G1 X62.139 Y48.812 E29.44753
G1 X62.912 Y48.145 E29.48149
G1 X63.224 Y47.913 E29.49442
G1 X63.816 Y47.518 E29.51809
G1 X64.081 Y47.36 E29.52835
G1 X64.673 Y47.044 E29.55067
G1 X65.024 Y46.878 E29.56359
G1 X65.996 Y46.504 E29.59823
G1 X66.364 Y46.393 E29.61101
G1 X67.023 Y46.229 E29.6336
G1 X67.406 Y46.153 E29.64658
G1 X68.421 Y46.028 E29.6806
G1 X69.151 Y46 E29.7049
G1 X145.002 Y46.004 E32.22771
G1 X145.681 Y46.037 E32.25032
G1 X145.989 Y46.067 E32.26061
G1 X146.683 Y46.17 E32.28395
G1 X146.988 Y46.231 E32.29429
G1 X147.636 Y46.393 E32.31651
G1 X148.004 Y46.504 E32.32929
G1 X148.976 Y46.878 E32.36393
G1 X149.327 Y47.044 E32.37685
G1 X149.919 Y47.36 E32.39917
G1 X150.184 Y47.518 E32.40943
G1 X150.776 Y47.913 E32.4331
G1 X151.088 Y48.145 E32.44603
G1 X151.861 Y48.812 E32.47999
G1 X152.188 Y49.139 E32.49537
G1 X152.851 Y49.906 E32.52909
G1 X153.082 Y50.216 E32.54195
G1 X153.483 Y50.817 E32.56598
G1 X153.642 Y51.084 E32.57631
G1 X153.953 Y51.667 E32.59829
G1 X154.118 Y52.015 E32.6111
G1 X154.494 Y52.991 E32.64589
G1 X154.606 Y53.362 E32.65878
G1 X154.771 Y54.023 E32.68144
G1 X154.847 Y54.406 E32.69443
G1 X154.972 Y55.421 E32.72844
G1 X155 Y56.151 E32.75274
G1 X154.996 Y166.001 E36.40636
G1 X154.963 Y166.677 E36.42887
G1 X154.933 Y166.986 E36.4392
G1 X154.83 Y167.683 E36.46263
G1 X154.769 Y167.988 E36.47298
G1 X154.607 Y168.636 E36.49519
G1 X154.496 Y169.004 E36.50798
G1 X154.122 Y169.976 E36.54262
G1 X153.956 Y170.327 E36.55553
G1 X153.64 Y170.919 E36.57785
G1 X153.482 Y171.184 E36.58811
G1 X153.087 Y171.776 E36.61178
G1 X152.855 Y172.088 E36.62472
G1 X152.188 Y172.861 E36.65867
G1 X151.861 Y173.188 E36.67405
G1 X151.088 Y173.855 E36.70801
G1 X150.776 Y174.087 E36.72094
G1 X150.184 Y174.482 E36.74462
G1 X149.919 Y174.64 E36.75488
G1 X149.334 Y174.953 E36.77694
G1 X148.984 Y175.119 E36.78983
G1 X148 Y175.497 E36.82489
G1 X147.631 Y175.608 E36.8377
G1 X146.977 Y175.771 E36.86012
G1 X146.594 Y175.847 E36.87311
G1 X145.579 Y175.972 E36.90712
G1 X144.85 Y176 E36.93139
G1 X136.587 Y176.001 E37.20622
G1 X136.366 Y176.138 E37.21486
G1 X135.692 Y176.462 E37.23974
G1 X134.987 Y176.712 E37.26462
G1 X134.259 Y176.886 E37.28951
G1 X133.517 Y176.981 E37.31439
G1 X133 Y177 E37.3316
G1 X81 Y177 E39.06113
G1 X80.253 Y176.96 E39.08601
G1 X79.515 Y176.841 E39.11087
G1 X78.793 Y176.643 E39.13577
G1 X78.097 Y176.37 E39.16064
G1 X77.399 Y176 E39.18691
G1 X69.151 Y176 E39.46124
G1 X68.421 Y175.972 E39.48554
G1 X67.406 Y175.847 E39.51955
G1 X67.023 Y175.771 E39.53254
G1 X66.369 Y175.608 E39.55496
G1 X66 Y175.497 E39.56777
G1 X65.016 Y175.119 E39.60283
G1 X64.666 Y174.953 E39.61572
G1 X64.081 Y174.64 E39.63779
G1 X63.816 Y174.482 E39.64805
G1 X63.224 Y174.087 E39.67172
G1 X62.912 Y173.855 E39.68465
G1 X62.139 Y173.188 E39.71861
G1 X61.812 Y172.861 E39.73399
G1 X61.145 Y172.088 E39.76795
G1 X60.913 Y171.776 E39.78088
G1 X60.518 Y171.184 E39.80455
G1 X60.36 Y170.919 E39.81481
G1 X60.044 Y170.327 E39.83713
G1 X59.878 Y169.976 E39.85004
G1 X59.504 Y169.004 E39.88468
G1 X59.393 Y168.636 E39.89747
G1 X59.229 Y167.977 E39.92006
G1 X59.153 Y167.594 E39.93304
G1 X59.028 Y166.579 E39.96706
G1 X59 Y165.849 E39.99135
G1 X59.004 Y55.999 E43.64498
G0 F6000 X59.404 Y55.999
G1 F1200 X59.435 Y55.361 E43.66622
G1 X59.465 Y55.052 E43.67655
G1 X59.562 Y54.396 E43.69861
G1 X59.623 Y54.091 E43.70895
G1 X59.776 Y53.479 E43.72993
G1 X59.887 Y53.111 E43.74272
G1 X60.24 Y52.195 E43.77537
G1 X60.406 Y51.844 E43.78828
G1 X60.703 Y51.286 E43.80931
G1 X60.861 Y51.021 E43.81957
G1 X61.234 Y50.463 E43.84189
G1 X61.466 Y50.151 E43.85482
G1 X62.095 Y49.422 E43.88685
G1 X62.422 Y49.095 E43.90223
G1 X63.151 Y48.466 E43.93425
G1 X63.463 Y48.234 E43.94719
G1 X64.021 Y47.861 E43.96951
G1 X64.286 Y47.703 E43.97977
G1 X64.844 Y47.406 E44.00079
G1 X65.195 Y47.24 E44.01371
G1 X66.111 Y46.887 E44.04636
G1 X66.479 Y46.776 E44.05914
G1 X67.1 Y46.621 E44.08043
G1 X67.483 Y46.545 E44.09342
G1 X68.441 Y46.427 E44.12552
G1 X69.151 Y46.4 E44.14915
G1 X145.002 Y46.404 E46.67197
G1 X145.642 Y46.435 E46.69328
G1 X145.95 Y46.465 E46.70357
G1 X146.604 Y46.562 E46.72556
G1 X146.909 Y46.623 E46.73591
G1 X147.521 Y46.776 E46.75689
G1 X147.889 Y46.887 E46.76967
G1 X148.805 Y47.24 E46.80232
G1 X149.156 Y47.406 E46.81524
G1 X149.714 Y47.703 E46.83626
G1 X149.979 Y47.861 E46.84652
G1 X150.537 Y48.234 E46.86885
G1 X150.849 Y48.466 E46.88178
G1 X151.578 Y49.095 E46.9138
G1 X151.905 Y49.422 E46.92919
G1 X152.53 Y50.145 E46.96097
G1 X152.761 Y50.455 E46.97383
G1 X153.14 Y51.022 E46.99651
G1 X153.299 Y51.289 E47.00685
G1 X153.592 Y51.838 E47.02755
G1 X153.757 Y52.186 E47.04036
G1 X154.111 Y53.107 E47.07318
G1 X154.223 Y53.478 E47.08606
G1 X154.379 Y54.1 E47.10739
G1 X154.455 Y54.483 E47.12038
G1 X154.573 Y55.441 E47.15248
G1 X154.6 Y56.151 E47.17612
G1 X154.596 Y166.001 E50.82974
G1 X154.565 Y166.639 E50.85099
G1 X154.535 Y166.948 E50.86131
G1 X154.438 Y167.604 E50.88337
G1 X154.377 Y167.909 E50.89371
G1 X154.224 Y168.521 E50.9147
G1 X154.113 Y168.889 E50.92748
G1 X153.76 Y169.805 E50.96013
G1 X153.594 Y170.156 E50.97304
G1 X153.297 Y170.714 E50.99407
G1 X153.139 Y170.979 E51.00433
G1 X152.766 Y171.537 E51.02665
G1 X152.534 Y171.849 E51.03959
G1 X151.905 Y172.578 E51.07161
G1 X151.578 Y172.905 E51.08699
G1 X150.849 Y173.534 E51.11902
G1 X150.537 Y173.766 E51.13195
G1 X149.979 Y174.139 E51.15427
G1 X149.714 Y174.297 E51.16453
G1 X149.162 Y174.591 E51.18533
G1 X148.812 Y174.757 E51.19822
G1 X147.885 Y175.114 E51.23126
G1 X147.516 Y175.225 E51.24407
G1 X146.9 Y175.379 E51.26519
G1 X146.517 Y175.455 E51.27818
G1 X145.559 Y175.573 E51.31028
G1 X144.85 Y175.6 E51.33388
G1 X136.478 Y175.601 E51.61234
G1 X135.987 Y175.885 E51.6312
G1 X135.322 Y176.178 E51.65537
G1 X134.629 Y176.396 E51.67953
G1 X133.917 Y176.536 E51.70367
G1 X133 Y176.6 E51.73424
G1 X81 Y176.6 E53.46377
G1 X80.275 Y176.56 E53.48792
G1 X79.558 Y176.441 E53.51209
G1 X78.859 Y176.243 E53.53626
G1 X78.186 Y175.97 E53.56041
G1 X77.511 Y175.6 E53.58602
G1 X69.151 Y175.6 E53.86407
G1 X68.441 Y175.573 E53.8877
G1 X67.483 Y175.455 E53.91981
G1 X67.1 Y175.379 E53.93279
G1 X66.484 Y175.225 E53.95391
G1 X66.115 Y175.114 E53.96673
G1 X65.188 Y174.757 E53.99977
G1 X64.838 Y174.591 E54.01265
G1 X64.286 Y174.297 E54.03345
G1 X64.021 Y174.139 E54.04371
G1 X63.463 Y173.766 E54.06604
G1 X63.151 Y173.534 E54.07897
G1 X62.422 Y172.905 E54.11099
G1 X62.095 Y172.578 E54.12638
G1 X61.466 Y171.849 E54.1584
G1 X61.234 Y171.537 E54.17133
G1 X60.861 Y170.979 E54.19366
G1 X60.703 Y170.714 E54.20392
G1 X60.406 Y170.156 E54.22494
G1 X60.24 Y169.805 E54.23786
G1 X59.887 Y168.889 E54.27051
G1 X59.776 Y168.521 E54.28329
G1 X59.621 Y167.9 E54.30458
G1 X59.545 Y167.517 E54.31757
G1 X59.427 Y166.559 E54.34967
G1 X59.4 Y165.849 E54.3733
G1 X59.404 Y55.999 E58.02693
G0 F6000 X59.804 Y55.999
G1 F1200 X59.833 Y55.4 E58.04687
G1 X59.863 Y55.091 E58.0572
G1 X59.954 Y54.474 E58.07794
G1 X60.015 Y54.169 E58.08829
G1 X60.159 Y53.595 E58.10797
G1 X60.27 Y53.227 E58.12075
G1 X60.601 Y52.366 E58.15143
G1 X60.767 Y52.015 E58.16435
G1 X61.047 Y51.491 E58.18411
G1 X61.205 Y51.226 E58.19437
G1 X61.555 Y50.701 E58.21536
G1 X61.787 Y50.389 E58.22829
G1 X62.378 Y49.705 E58.25835
G1 X62.705 Y49.378 E58.27374
G1 X63.389 Y48.787 E58.3038
G1 X63.701 Y48.555 E58.31673
G1 X64.226 Y48.205 E58.33772
G1 X64.491 Y48.047 E58.34798
G1 X65.015 Y47.767 E58.36774
G1 X65.366 Y47.601 E58.38066
G1 X66.227 Y47.27 E58.41134
G1 X66.595 Y47.159 E58.42412
G1 X67.178 Y47.014 E58.4441
G1 X67.561 Y46.938 E58.45709
G1 X68.461 Y46.827 E58.48725
