;FLAVOR:Marlin
;TIME:5383
;Filament used: 2.95014m
;Layer height: 0.2
;MINX:49.8
;MINY:54.921
;MINZ:0.2
;MAXX:163.769
;MAXY:188.964
;MAXZ:22
;Generated with Cura_SteamEngine main
M140 S50
M105
M190 S50
M104 S200
M105
M109 S200
M82 ;absolute extrusion mode
M201 X500.00 Y500.00 Z100.00 E5000.00 ;Setup machine max acceleration
M203 X500.00 Y500.00 Z10.00 E50.00 ;Setup machine max feedrate
M204 P500.00 R1000.00 T500.00 ;Setup Print/Retract/Travel acceleration
M205 X8.00 Y8.00 Z0.40 E5.00 ;Setup Jerk
M220 S100 ;Reset Feedrate
M221 S100 ;Reset Flowrate

G28 ;Home
G29 ;Auto Bed Leveling
M420 S1 Z2 ;Enable ABL using saved Mesh and Fade Height

G92 E0 ;Reset Extruder
G1 Z2.0 F3000 ;Move Z Axis up
G1 X10.1 Y20 Z0.28 F5000.0 ;Move to start position
G1 X10.1 Y200.0 Z0.28 F1500.0 E15 ;Draw the first line
G1 X10.4 Y200.0 Z0.28 F5000.0 ;Move to side a little
G1 X10.4 Y20 Z0.28 F1500.0 E30 ;Draw the second line
G92 E0 ;Reset Extruder
G1 Z2.0 F3000 ;Move Z Axis up
G92 E0
G92 E0
G1 F2700 E-5
;LAYER_COUNT:85
;LAYER:0
M107
G0 F6000 X53.618 Y59.25 Z0.2
G0 X49.8 Y67.831
;TYPE:SKIRT
G1 F2700 E0
G1 F1200 X49.849 Y67.135 E0.02321
G1 X50.001 Y66.061 E0.05928
G1 X50.146 Y65.379 E0.08247
G1 X50.443 Y64.341 E0.11838
G1 X50.681 Y63.685 E0.14159
G1 X51.124 Y62.688 E0.17788
G1 X51.451 Y62.072 E0.20108
G1 X52.034 Y61.139 E0.23767
G1 X52.446 Y60.573 E0.26095
G1 X53.136 Y59.75 E0.29667
G1 X53.618 Y59.25 E0.31977
G1 X54.434 Y58.515 E0.3563
G1 X54.986 Y58.084 E0.37959
G1 X55.891 Y57.474 E0.41589
G1 X56.493 Y57.127 E0.439
G1 X57.453 Y56.658 E0.47454
G1 X58.103 Y56.394 E0.49787
G1 X59.162 Y56.05 E0.53491
G1 X59.836 Y55.883 E0.558
G1 X60.897 Y55.697 E0.59383
G1 X61.592 Y55.624 E0.61707
G1 X62.676 Y55.586 E0.65315
G1 X63.372 Y55.61 E0.67631
G1 X64.461 Y55.724 E0.71273
G1 X65.151 Y55.846 E0.73604
G1 X66.199 Y56.107 E0.77196
G1 X66.859 Y56.321 E0.79503
G1 X67.883 Y56.736 E0.83178
G1 X68.51 Y57.043 E0.855
G1 X69.44 Y57.58 E0.89072
G1 X70.02 Y57.971 E0.91399
G1 X70.87 Y58.634 E0.94984
G1 X71.387 Y59.098 E0.97295
G1 X72.157 Y59.895 E1.0098
G1 X72.605 Y60.43 E1.03301
G1 X73.236 Y61.298 E1.06871
G1 X73.608 Y61.892 E1.09202
G1 X74.121 Y62.857 E1.12837
G1 X74.404 Y63.492 E1.15149
G1 X74.778 Y64.518 E1.18781
G1 X74.97 Y65.188 E1.21099
G1 X75.196 Y66.253 E1.2472
G1 X75.293 Y66.944 E1.27041
G1 X75.369 Y68.028 E1.30655
G1 X75.369 Y68.725 E1.32973
G1 X75.294 Y69.806 E1.36578
G1 X75.197 Y70.499 E1.38905
G1 X74.972 Y71.559 E1.42509
G1 X74.781 Y72.228 E1.44823
G1 X74.403 Y73.267 E1.485
G1 X74.119 Y73.903 E1.50817
G1 X73.611 Y74.858 E1.54415
G1 X73.239 Y75.453 E1.56749
G1 X72.602 Y76.329 E1.60351
G1 X72.156 Y76.861 E1.6266
G1 X71.396 Y77.648 E1.66299
G1 X70.877 Y78.115 E1.68621
G1 X70.02 Y78.785 E1.72239
G1 X69.44 Y79.176 E1.74566
G1 X68.51 Y79.713 E1.78138
G1 X67.883 Y80.02 E1.8046
G1 X66.849 Y80.438 E1.84169
G1 X66.189 Y80.651 E1.86476
G1 X65.151 Y80.909 E1.90033
G1 X64.461 Y81.031 E1.92364
G1 X63.383 Y81.145 E1.95969
G1 X62.687 Y81.17 E1.98286
G1 X61.592 Y81.132 E2.0193
G1 X60.897 Y81.059 E2.04254
G1 X59.818 Y80.868 E2.07899
G1 X59.143 Y80.699 E2.10213
G1 X58.121 Y80.367 E2.13787
G1 X57.471 Y80.105 E2.16118
G1 X56.487 Y79.626 E2.19758
G1 X55.886 Y79.279 E2.22066
G1 X54.979 Y78.667 E2.25705
G1 X54.427 Y78.235 E2.28037
G1 X53.624 Y77.511 E2.31633
G1 X53.142 Y77.012 E2.3394
G1 X52.442 Y76.178 E2.37562
G1 X52.03 Y75.611 E2.39893
G1 X51.451 Y74.683 E2.43531
G1 X51.124 Y74.067 E2.4585
G1 X50.682 Y73.074 E2.49466
G1 X50.444 Y72.419 E2.51783
G1 X50.146 Y71.377 E2.55388
G1 X50.001 Y70.695 E2.57707
G1 X49.849 Y69.622 E2.61312
G1 X49.8 Y68.928 E2.63626
G1 X49.8 Y67.831 E2.67274
G0 F6000 X50.199 Y67.859
G1 F1200 X50.248 Y67.163 E2.69595
G1 X50.392 Y66.144 E2.73018
G1 X50.537 Y65.462 E2.75337
G1 X50.819 Y64.477 E2.78745
G1 X51.057 Y63.821 E2.81066
G1 X51.477 Y62.875 E2.84508
G1 X51.804 Y62.259 E2.86828
G1 X52.357 Y61.374 E2.90299
G1 X52.769 Y60.808 E2.92627
G1 X53.424 Y60.027 E2.96017
G1 X53.906 Y59.527 E2.98327
G1 X54.68 Y58.83 E3.01792
G1 X55.232 Y58.399 E3.04121
G1 X56.091 Y57.821 E3.07564
G1 X56.693 Y57.474 E3.09876
G1 X57.603 Y57.029 E3.13245
G1 X58.253 Y56.765 E3.15578
G1 X59.258 Y56.438 E3.19093
G1 X59.932 Y56.271 E3.21403
G1 X60.939 Y56.094 E3.24803
G1 X61.634 Y56.021 E3.27128
G1 X62.662 Y55.985 E3.30549
G1 X63.358 Y56.009 E3.32865
G1 X64.391 Y56.118 E3.3632
G1 X65.081 Y56.24 E3.38651
G1 X66.075 Y56.488 E3.42058
G1 X66.735 Y56.702 E3.44366
G1 X67.707 Y57.095 E3.47853
G1 X68.334 Y57.402 E3.50175
G1 X69.216 Y57.912 E3.53564
G1 X69.796 Y58.303 E3.5589
G1 X70.603 Y58.932 E3.59293
G1 X71.12 Y59.396 E3.61604
G1 X71.851 Y60.152 E3.65101
G1 X72.299 Y60.687 E3.67422
G1 X72.897 Y61.51 E3.70806
G1 X73.269 Y62.104 E3.73137
G1 X73.756 Y63.02 E3.76587
G1 X74.039 Y63.655 E3.789
G1 X74.394 Y64.628 E3.82345
G1 X74.586 Y65.298 E3.84663
G1 X74.8 Y66.308 E3.88097
G1 X74.897 Y66.999 E3.90417
G1 X74.969 Y68.028 E3.93848
G1 X74.969 Y68.725 E3.96166
G1 X74.898 Y69.751 E3.99587
G1 X74.801 Y70.444 E4.01914
G1 X74.588 Y71.45 E4.05335
G1 X74.397 Y72.119 E4.07649
G1 X74.038 Y73.104 E4.11136
G1 X73.754 Y73.74 E4.13452
G1 X73.272 Y74.646 E4.16865
G1 X72.9 Y75.241 E4.19199
G1 X72.296 Y76.072 E4.22616
G1 X71.85 Y76.604 E4.24925
G1 X71.129 Y77.351 E4.28378
G1 X70.61 Y77.818 E4.307
G1 X69.796 Y78.453 E4.34134
G1 X69.216 Y78.844 E4.36461
G1 X68.334 Y79.354 E4.39849
G1 X67.707 Y79.661 E4.42171
G1 X66.726 Y80.057 E4.4569
G1 X66.066 Y80.27 E4.47997
G1 X65.081 Y80.515 E4.51373
G1 X64.391 Y80.637 E4.53703
G1 X63.369 Y80.745 E4.57121
G1 X62.673 Y80.77 E4.59438
G1 X61.634 Y80.735 E4.62895
G1 X60.939 Y80.662 E4.6522
G1 X59.915 Y80.48 E4.68679
G1 X59.24 Y80.311 E4.70993
G1 X58.271 Y79.996 E4.74382
G1 X57.621 Y79.734 E4.76713
G1 X56.687 Y79.28 E4.80167
G1 X56.086 Y78.933 E4.82475
G1 X55.225 Y78.352 E4.8593
G1 X54.673 Y77.92 E4.88261
G1 X53.912 Y77.233 E4.91671
G1 X53.43 Y76.734 E4.93979
G1 X52.766 Y75.943 E4.97414
G1 X52.354 Y75.376 E4.99745
G1 X51.804 Y74.496 E5.03196
G1 X51.477 Y73.88 E5.05516
G1 X51.058 Y72.937 E5.08948
G1 X50.82 Y72.282 E5.11266
G1 X50.537 Y71.294 E5.14684
G1 X50.392 Y70.612 E5.17003
G1 X50.248 Y69.594 E5.20423
G1 X50.199 Y68.9 E5.22737
G1 X50.199 Y67.859 E5.26199
G0 F6000 X50.598 Y67.887
G1 F1200 X50.647 Y67.191 E5.2852
G1 X50.783 Y66.227 E5.31758
G1 X50.928 Y65.545 E5.34077
G1 X51.195 Y64.614 E5.37298
G1 X51.433 Y63.958 E5.39619
G1 X51.83 Y63.063 E5.42876
G1 X52.157 Y62.447 E5.45195
G1 X52.681 Y61.609 E5.48483
G1 X53.093 Y61.043 E5.50811
G1 X53.712 Y60.305 E5.54015
G1 X54.194 Y59.805 E5.56325
G1 X54.926 Y59.146 E5.59601
G1 X55.478 Y58.715 E5.6193
G1 X56.29 Y58.167 E5.65188
G1 X56.892 Y57.82 E5.67499
G1 X57.754 Y57.4 E5.70688
G1 X58.404 Y57.136 E5.73022
G1 X59.354 Y56.826 E5.76346
G1 X60.028 Y56.659 E5.78655
G1 X60.981 Y56.492 E5.81873
G1 X61.676 Y56.419 E5.84197
G1 X62.648 Y56.385 E5.87432
G1 X63.344 Y56.409 E5.89748
G1 X64.322 Y56.512 E5.93019
G1 X65.012 Y56.634 E5.9535
G1 X65.952 Y56.868 E5.98572
G1 X66.612 Y57.082 E6.00879
G1 X67.531 Y57.454 E6.04177
G1 X68.158 Y57.761 E6.06499
G1 X68.993 Y58.244 E6.09707
G1 X69.573 Y58.635 E6.12034
G1 X70.336 Y59.229 E6.1525
G1 X70.853 Y59.693 E6.1756
G1 X71.544 Y60.409 E6.2087
G1 X71.992 Y60.944 E6.23191
G1 X72.558 Y61.723 E6.26394
G1 X72.93 Y62.317 E6.28725
G1 X73.391 Y63.182 E6.31985
G1 X73.674 Y63.817 E6.34297
G1 X74.009 Y64.739 E6.3756
G1 X74.201 Y65.409 E6.39878
G1 X74.404 Y66.364 E6.43125
G1 X74.501 Y67.055 E6.45446
G1 X74.569 Y68.028 E6.4869
G1 X74.569 Y68.725 E6.51008
G1 X74.501 Y69.695 E6.54242
G1 X74.404 Y70.388 E6.5657
G1 X74.203 Y71.34 E6.59806
G1 X74.012 Y72.009 E6.6212
G1 X73.673 Y72.941 E6.65419
G1 X73.389 Y73.577 E6.67735
G1 X72.932 Y74.434 E6.70966
G1 X72.56 Y75.029 E6.733
G1 X71.989 Y75.815 E6.76531
G1 X71.543 Y76.347 E6.7884
G1 X70.861 Y77.054 E6.82107
G1 X70.342 Y77.521 E6.84429
G1 X69.573 Y78.121 E6.87673
G1 X68.993 Y78.512 E6.9
G1 X68.158 Y78.995 E6.93208
G1 X67.531 Y79.302 E6.9553
G1 X66.603 Y79.677 E6.98859
G1 X65.943 Y79.89 E7.01166
G1 X65.012 Y80.121 E7.04356
G1 X64.322 Y80.243 E7.06687
G1 X63.354 Y80.345 E7.09924
G1 X62.658 Y80.37 E7.12241
G1 X61.676 Y80.337 E7.15509
G1 X60.981 Y80.264 E7.17833
G1 X60.012 Y80.092 E7.21106
G1 X59.337 Y79.923 E7.2342
G1 X58.42 Y79.625 E7.26627
G1 X57.77 Y79.363 E7.28958
G1 X56.887 Y78.933 E7.32225
G1 X56.286 Y78.586 E7.34533
G1 X55.472 Y78.037 E7.37799
G1 X54.92 Y77.605 E7.4013
G1 X54.199 Y76.955 E7.43359
G1 X53.717 Y76.456 E7.45666
G1 X53.089 Y75.708 E7.48915
G1 X52.677 Y75.141 E7.51246
G1 X52.157 Y74.308 E7.54512
G1 X51.83 Y73.692 E7.56832
G1 X51.434 Y72.801 E7.60075
G1 X51.196 Y72.146 E7.62392
G1 X50.928 Y71.211 E7.65627
G1 X50.783 Y70.529 E7.67947
G1 X50.647 Y69.566 E7.71181
G1 X50.598 Y68.872 E7.73495
G1 X50.598 Y67.887 E7.76771
G0 F6000 X50.997 Y67.915
G1 F1200 X51.046 Y67.219 E7.79092
G1 X51.174 Y66.31 E7.82145
G1 X51.319 Y65.628 E7.84464
G1 X51.571 Y64.75 E7.87502
G1 X51.809 Y64.094 E7.89823
G1 X52.183 Y63.25 E7.92894
G1 X52.51 Y62.634 E7.95213
G1 X53.004 Y61.845 E7.9831
G1 X53.416 Y61.279 E8.00638
G1 X54 Y60.582 E8.03662
G1 X54.482 Y60.082 E8.05972
G1 X55.172 Y59.461 E8.0906
G1 X55.724 Y59.03 E8.11389
G1 X56.49 Y58.514 E8.14461
G1 X57.092 Y58.167 E8.16772
G1 X57.904 Y57.77 E8.19778
G1 X58.554 Y57.506 E8.22112
G1 X59.451 Y57.215 E8.25248
G1 X60.125 Y57.048 E8.27558
G1 X61.023 Y56.89 E8.3059
G1 X61.718 Y56.817 E8.32915
G1 X62.634 Y56.785 E8.35963
G1 X63.33 Y56.809 E8.3828
G1 X64.252 Y56.906 E8.41363
G1 X64.942 Y57.028 E8.43694
G1 X65.829 Y57.249 E8.46734
G1 X66.489 Y57.463 E8.49042
G1 X67.355 Y57.813 E8.52148
G1 X67.982 Y58.12 E8.5447
G1 X68.769 Y58.575 E8.57494
G1 X69.349 Y58.966 E8.5982
G1 X70.068 Y59.527 E8.62854
G1 X70.585 Y59.991 E8.65164
G1 X71.237 Y60.666 E8.68285
G1 X71.685 Y61.201 E8.70606
G1 X72.219 Y61.935 E8.73625
G1 X72.591 Y62.529 E8.75956
G1 X73.025 Y63.345 E8.7903
G1 X73.308 Y63.98 E8.81343
G1 X73.625 Y64.849 E8.84419
G1 X73.817 Y65.519 E8.86737
G1 X74.008 Y66.42 E8.89801
G1 X74.105 Y67.111 E8.92122
G1 X74.169 Y68.028 E8.95179
G1 X74.169 Y68.725 E8.97497
G1 X74.105 Y69.64 E9.00548
G1 X74.008 Y70.333 E9.02875
G1 X73.818 Y71.23 E9.05925
G1 X73.627 Y71.899 E9.08239
G1 X73.307 Y72.778 E9.1135
G1 X73.023 Y73.414 E9.13667
G1 X72.593 Y74.222 E9.16711
G1 X72.221 Y74.817 E9.19045
G1 X71.683 Y75.558 E9.22091
G1 X71.237 Y76.09 E9.244
G1 X70.594 Y76.756 E9.27479
G1 X70.075 Y77.223 E9.29801
G1 X69.349 Y77.79 E9.32865
G1 X68.769 Y78.181 E9.35191
G1 X67.982 Y78.636 E9.38215
G1 X67.355 Y78.943 E9.40537
G1 X66.48 Y79.296 E9.43675
G1 X65.82 Y79.509 E9.45982
G1 X64.942 Y79.727 E9.48991
G1 X64.252 Y79.849 E9.51321
G1 X63.34 Y79.946 E9.54372
G1 X62.644 Y79.971 E9.56688
G1 X61.718 Y79.939 E9.5977
G1 X61.023 Y79.866 E9.62094
G1 X60.109 Y79.704 E9.65181
G1 X59.434 Y79.535 E9.67496
G1 X58.57 Y79.254 E9.70518
G1 X57.92 Y78.992 E9.72848
G1 X57.087 Y78.587 E9.75929
G1 X56.486 Y78.24 E9.78237
G1 X55.718 Y77.722 E9.81318
G1 X55.166 Y77.29 E9.8365
G1 X54.487 Y76.677 E9.86692
G1 X54.005 Y76.178 E9.89
G1 X53.413 Y75.473 E9.92062
G1 X53.001 Y74.906 E9.94393
G1 X52.51 Y74.121 E9.97472
G1 X52.183 Y73.505 E9.99792
G1 X51.81 Y72.664 E10.02852
G1 X51.572 Y72.009 E10.0517
G1 X51.319 Y71.128 E10.08219
G1 X51.174 Y70.446 E10.10538
G1 X51.046 Y69.538 E10.13587
G1 X50.997 Y68.844 E10.15901
G1 X50.997 Y67.915 E10.18991
G0 F6000 X51.396 Y67.944
G1 F1200 X51.445 Y67.248 E10.21312
G1 X51.566 Y66.394 E10.24181
G1 X51.711 Y65.712 E10.265
G1 X51.947 Y64.886 E10.29357
G1 X52.185 Y64.23 E10.31678
G1 X52.537 Y63.438 E10.34561
G1 X52.864 Y62.822 E10.3688
G1 X53.327 Y62.08 E10.39789
G1 X53.739 Y61.514 E10.42118
G1 X54.288 Y60.86 E10.44958
G1 X54.77 Y60.36 E10.47268
G1 X55.418 Y59.776 E10.50169
G1 X55.97 Y59.345 E10.52498
G1 X56.69 Y58.86 E10.55386
G1 X57.292 Y58.513 E10.57697
G1 X58.055 Y58.141 E10.6052
G1 X58.705 Y57.877 E10.62853
G1 X59.547 Y57.603 E10.65799
G1 X60.221 Y57.436 E10.68108
G1 X61.064 Y57.288 E10.70955
G1 X61.759 Y57.215 E10.73279
G1 X62.621 Y57.185 E10.76148
G1 X63.317 Y57.209 E10.78464
G1 X64.182 Y57.3 E10.81357
G1 X64.872 Y57.422 E10.83688
G1 X65.705 Y57.629 E10.86542
G1 X66.365 Y57.843 E10.8885
G1 X67.179 Y58.173 E10.91771
G1 X67.806 Y58.48 E10.94093
G1 X68.546 Y58.907 E10.96935
G1 X69.126 Y59.298 E10.99262
G1 X69.801 Y59.825 E11.0211
G1 X70.318 Y60.289 E11.0442
G1 X70.93 Y60.923 E11.07351
G1 X71.378 Y61.458 E11.09672
G1 X71.88 Y62.147 E11.12507
G1 X72.252 Y62.741 E11.14839
G1 X72.66 Y63.508 E11.17728
G1 X72.943 Y64.143 E11.2004
G1 X73.24 Y64.959 E11.22929
G1 X73.432 Y65.629 E11.25247
G1 X73.612 Y66.475 E11.28123
G1 X73.709 Y67.166 E11.30444
G1 X73.769 Y68.028 E11.33318
G1 X73.769 Y68.725 E11.35636
G1 X73.709 Y69.584 E11.385
G1 X73.612 Y70.277 E11.40828
G1 X73.434 Y71.12 E11.43694
G1 X73.243 Y71.789 E11.46008
G1 X72.942 Y72.615 E11.48932
G1 X72.658 Y73.251 E11.51248
G1 X72.254 Y74.01 E11.54108
G1 X71.882 Y74.605 E11.56442
G1 X71.376 Y75.301 E11.59304
G1 X70.93 Y75.833 E11.61613
G1 X70.326 Y76.459 E11.64506
G1 X69.807 Y76.926 E11.66828
G1 X69.126 Y77.458 E11.69703
G1 X68.546 Y77.849 E11.72029
G1 X67.806 Y78.276 E11.74871
G1 X67.179 Y78.583 E11.77193
G1 X66.357 Y78.915 E11.80141
G1 X65.697 Y79.128 E11.82448
G1 X64.872 Y79.333 E11.85275
G1 X64.182 Y79.455 E11.87606
G1 X63.326 Y79.546 E11.90469
G1 X62.63 Y79.571 E11.92785
G1 X61.759 Y79.541 E11.95684
G1 X61.064 Y79.468 E11.98008
G1 X60.206 Y79.316 E12.00906
G1 X59.531 Y79.147 E12.03221
G1 X58.719 Y78.883 E12.06061
G1 X58.069 Y78.621 E12.08392
G1 X57.287 Y78.24 E12.11285
G1 X56.686 Y77.893 E12.13593
G1 X55.965 Y77.407 E12.16485
G1 X55.413 Y76.975 E12.18816
G1 X54.775 Y76.399 E12.21675
G1 X54.293 Y75.9 E12.23983
G1 X53.736 Y75.238 E12.2686
G1 X53.324 Y74.671 E12.29191
G1 X52.864 Y73.933 E12.32084
G1 X52.537 Y73.317 E12.34403
G1 X52.186 Y72.527 E12.37279
G1 X51.948 Y71.872 E12.39596
G1 X51.711 Y71.044 E12.42461
G1 X51.566 Y70.362 E12.4478
G1 X51.445 Y69.51 E12.47642
G1 X51.396 Y68.816 E12.49956
G1 X51.396 Y67.944 E12.52856
G0 F6000 X51.795 Y67.972
G1 F1200 X51.844 Y67.276 E12.55177
G1 X51.957 Y66.477 E12.57861
G1 X52.102 Y65.795 E12.6018
G1 X52.323 Y65.023 E12.62851
G1 X52.561 Y64.367 E12.65172
G1 X52.89 Y63.626 E12.67869
G1 X53.217 Y63.01 E12.70188
G1 X53.651 Y62.316 E12.72911
G1 X54.063 Y61.75 E12.75239
G1 X54.576 Y61.138 E12.77895
G1 X55.058 Y60.638 E12.80205
G1 X55.665 Y60.091 E12.82923
G1 X56.217 Y59.66 E12.85252
G1 X56.89 Y59.207 E12.8795
G1 X57.492 Y58.86 E12.90261
G1 X58.205 Y58.511 E12.92902
G1 X58.855 Y58.247 E12.95235
G1 X59.643 Y57.991 E12.97991
G1 X60.317 Y57.824 E13.003
G1 X61.106 Y57.686 E13.02964
G1 X61.801 Y57.613 E13.05289
G1 X62.607 Y57.584 E13.07971
G1 X63.303 Y57.608 E13.10287
G1 X64.113 Y57.694 E13.12997
G1 X64.803 Y57.816 E13.15327
G1 X65.582 Y58.01 E13.17997
G1 X66.242 Y58.224 E13.20305
G1 X67.004 Y58.532 E13.23039
G1 X67.631 Y58.839 E13.25361
G1 X68.322 Y59.239 E13.28016
G1 X68.902 Y59.63 E13.30343
G1 X69.534 Y60.123 E13.33009
G1 X70.051 Y60.587 E13.35319
G1 X70.624 Y61.179 E13.38059
G1 X71.072 Y61.714 E13.4038
G1 X71.541 Y62.36 E13.43035
G1 X71.913 Y62.954 E13.45367
G1 X72.295 Y63.671 E13.48069
G1 X72.578 Y64.306 E13.50381
G1 X72.856 Y65.069 E13.53082
G1 X73.048 Y65.739 E13.554
G1 X73.216 Y66.531 E13.58093
G1 X73.313 Y67.222 E13.60414
G1 X73.369 Y68.028 E13.63101
G1 X73.369 Y68.725 E13.65419
G1 X73.313 Y69.529 E13.681
G1 X73.216 Y70.222 E13.70427
G1 X73.049 Y71.01 E13.73106
G1 X72.858 Y71.679 E13.7542
G1 X72.577 Y72.452 E13.78156
G1 X72.293 Y73.088 E13.80472
G1 X71.915 Y73.798 E13.83148
G1 X71.543 Y74.393 E13.85482
G1 X71.07 Y75.044 E13.88158
G1 X70.624 Y75.576 E13.90467
G1 X70.059 Y76.162 E13.93174
G1 X69.54 Y76.629 E13.95497
G1 X68.902 Y77.126 E13.98186
G1 X68.322 Y77.517 E14.00513
G1 X67.631 Y77.917 E14.03169
G1 X67.004 Y78.224 E14.05491
G1 X66.234 Y78.535 E14.08253
G1 X65.574 Y78.748 E14.10559
G1 X64.803 Y78.939 E14.13201
G1 X64.113 Y79.061 E14.15532
G1 X63.311 Y79.146 E14.18214
G1 X62.615 Y79.171 E14.2053
G1 X61.801 Y79.143 E14.23239
G1 X61.106 Y79.07 E14.25564
G1 X60.303 Y78.928 E14.28276
G1 X59.628 Y78.759 E14.3059
G1 X58.869 Y78.512 E14.33245
G1 X58.219 Y78.25 E14.35576
G1 X57.487 Y77.894 E14.38283
G1 X56.886 Y77.547 E14.40591
G1 X56.211 Y77.092 E14.43299
G1 X55.659 Y76.66 E14.4563
G1 X55.062 Y76.122 E14.48303
