;START_OF_HEADER
;HEADER_VERSION:0.1
;FLAVOR:Griffin
;GENERATOR.NAME:Cura_SteamEngine
;GENERATOR.VERSION:5.0.0
;GENERATOR.BUILD_DATE:2022-05-17
;TARGET_MACHINE.NAME:Ultimaker 3 Extended
;EXTRUDER_TRAIN.1.INITIAL_TEMPERATURE:205
;EXTRUDER_TRAIN.1.MATERIAL.VOLUME_USED:8087
;EXTRUDER_TRAIN.1.MATERIAL.GUID:506c9f0d-e3aa-4bd4-b2d2-23e2425b1aa9
;EXTRUDER_TRAIN.1.NOZZLE.DIAMETER:0.4
;EXTRUDER_TRAIN.1.NOZZLE.NAME:AA 0.4
;BUILD_PLATE.TYPE:glass
;BUILD_PLATE.INITIAL_TEMPERATURE:60
;PRINT.TIME:5242
;PRINT.GROUPS:3
;PRINT.SIZE.MIN.X:41.869
;PRINT.SIZE.MIN.Y:46.924
;PRINT.SIZE.MIN.Z:0.27
;PRINT.SIZE.MAX.X:187.874
;PRINT.SIZE.MAX.Y:199.385
;PRINT.SIZE.MAX.Z:22
;END_OF_HEADER
;Generated with Cura_SteamEngine 5.0.0
T1
M82 ;absolute extrusion mode

G92 E0
M109 S205
G280 S1
G0 Z20.001
G1 F1500 E-6.5
;LAYER_COUNT:113
;LAYER:0
M107
M204 S429
M205 X20 Y20
G0 F3750 X62.721 Y66.854 Z0.27
G0 X52.894 Y70.828
M204 S1000
;TYPE:SKIRT
G1 F1500 E0
G1 F1200 X52.202 Y70.755 E0.01414
G1 X51.242 Y70.585 E0.03394
G1 X50.567 Y70.416 E0.04808
G1 X49.657 Y70.12 E0.06752
G1 X49.009 Y69.859 E0.08171
G1 X48.128 Y69.43 E0.10162
G1 X47.529 Y69.084 E0.11567
G1 X46.723 Y68.54 E0.13543
G1 X46.173 Y68.11 E0.14961
G1 X45.454 Y67.462 E0.16927
G1 X44.973 Y66.964 E0.18334
G1 X44.347 Y66.219 E0.20311
G1 X43.936 Y65.653 E0.21732
G1 X43.417 Y64.819 E0.23727
G1 X43.092 Y64.205 E0.25139
G1 X42.703 Y63.33 E0.27084
G1 X42.466 Y62.679 E0.28491
G1 X42.198 Y61.745 E0.30465
G1 X42.053 Y61.063 E0.31882
G1 X41.918 Y60.109 E0.33839
G1 X41.869 Y59.419 E0.35245
G1 X41.869 Y58.436 E0.37242
G1 X41.918 Y57.742 E0.38655
G1 X42.053 Y56.785 E0.40618
G1 X42.198 Y56.103 E0.42035
G1 X42.465 Y55.172 E0.44003
G1 X42.702 Y54.52 E0.45412
G1 X43.092 Y53.642 E0.47364
G1 X43.417 Y53.028 E0.48775
G1 X43.94 Y52.19 E0.50782
G1 X44.351 Y51.625 E0.52201
G1 X44.973 Y50.884 E0.54167
G1 X45.454 Y50.386 E0.55573
G1 X46.173 Y49.738 E0.5754
G1 X46.723 Y49.308 E0.58958
G1 X47.529 Y48.764 E0.60933
G1 X48.128 Y48.418 E0.62339
G1 X49.009 Y47.989 E0.64329
G1 X49.657 Y47.728 E0.65749
G1 X50.567 Y47.432 E0.67693
G1 X51.242 Y47.263 E0.69106
G1 X52.202 Y47.093 E0.71087
G1 X52.894 Y47.02 E0.725
G1 X53.865 Y46.986 E0.74474
G1 X54.557 Y47.01 E0.75881
G1 X55.528 Y47.112 E0.77864
G1 X56.218 Y47.234 E0.79288
G1 X57.15 Y47.466 E0.81239
G1 X57.808 Y47.679 E0.82644
G1 X58.724 Y48.05 E0.84652
G1 X59.349 Y48.356 E0.86066
G1 X60.175 Y48.833 E0.88003
G1 X60.753 Y49.222 E0.89419
G1 X61.526 Y49.825 E0.9141
G1 X62.041 Y50.289 E0.92819
G1 X62.716 Y50.989 E0.94794
G1 X63.162 Y51.521 E0.96205
G1 X63.726 Y52.296 E0.98152
G1 X64.097 Y52.888 E0.99571
G1 X64.554 Y53.746 E1.01546
G1 X64.838 Y54.382 E1.02961
G1 X65.175 Y55.308 E1.04963
G1 X65.365 Y55.973 E1.06368
G1 X65.565 Y56.915 E1.08324
G1 X65.662 Y57.604 E1.09738
G1 X65.73 Y58.574 E1.11713
G1 X65.73 Y59.269 E1.13125
G1 X65.663 Y60.234 E1.1509
G1 X65.566 Y60.927 E1.16512
G1 X65.363 Y61.881 E1.18493
G1 X65.172 Y62.547 E1.19901
G1 X64.84 Y63.46 E1.21875
G1 X64.558 Y64.093 E1.23282
G1 X64.102 Y64.951 E1.25256
G1 X63.73 Y65.546 E1.26682
G1 X63.164 Y66.325 E1.28638
G1 X62.721 Y66.854 E1.3004
G1 X62.045 Y67.554 E1.32017
G1 X61.527 Y68.021 E1.33434
G1 X60.753 Y68.626 E1.35429
G1 X60.175 Y69.015 E1.36845
G1 X59.349 Y69.492 E1.38783
G1 X58.724 Y69.798 E1.40196
G1 X57.798 Y70.172 E1.42225
G1 X57.14 Y70.384 E1.4363
G1 X56.218 Y70.613 E1.4556
G1 X55.528 Y70.735 E1.46983
G1 X54.567 Y70.836 E1.48946
G1 X53.875 Y70.861 E1.50353
G1 X52.894 Y70.828 E1.52347
M204 S429
G1 F1500 E-4.97653
G0 F3750 X48.608 Y68.599
M204 S1000
G1 F1500 E1.52347
G1 F1200 X48.009 Y68.253 E1.53752
G1 X47.314 Y67.784 E1.55456
G1 X46.764 Y67.354 E1.56874
G1 X46.144 Y66.795 E1.5857
G1 X45.663 Y66.297 E1.59976
G1 X45.124 Y65.654 E1.61681
G1 X44.713 Y65.088 E1.63102
G1 X44.265 Y64.37 E1.64821
G1 X43.94 Y63.756 E1.66233
G1 X43.605 Y63.002 E1.67909
G1 X43.368 Y62.351 E1.69316
G1 X43.137 Y61.546 E1.71018
G1 X42.992 Y60.864 E1.72434
G1 X42.876 Y60.041 E1.74123
G1 X42.827 Y59.351 E1.75528
G1 X42.827 Y58.503 E1.77251
G1 X42.876 Y57.809 E1.78664
G1 X42.992 Y56.984 E1.80356
G1 X43.137 Y56.302 E1.81773
G1 X43.367 Y55.5 E1.83468
G1 X43.604 Y54.848 E1.84877
G1 X43.94 Y54.091 E1.8656
G1 X44.265 Y53.477 E1.87971
G1 X44.716 Y52.754 E1.89702
G1 X45.127 Y52.189 E1.91122
G1 X45.663 Y51.551 E1.92815
G1 X46.144 Y51.053 E1.94221
G1 X46.764 Y50.494 E1.95917
G1 X47.314 Y50.064 E1.97335
G1 X48.009 Y49.595 E1.99039
G1 X48.608 Y49.249 E2.00444
G1 X49.367 Y48.879 E2.02159
G1 X50.015 Y48.618 E2.03579
G1 X50.8 Y48.364 E2.05255
G1 X51.475 Y48.195 E2.06668
G1 X52.303 Y48.048 E2.08377
G1 X52.995 Y47.975 E2.0979
G1 X53.832 Y47.946 E2.11492
G1 X54.524 Y47.97 E2.12898
G1 X55.361 Y48.058 E2.14608
G1 X56.051 Y48.18 E2.16032
G1 X56.854 Y48.38 E2.17713
G1 X57.512 Y48.593 E2.19118
G1 X58.302 Y48.912 E2.20849
G1 X58.927 Y49.218 E2.22262
G1 X59.639 Y49.629 E2.23933
G1 X60.217 Y50.018 E2.25348
G1 X60.883 Y50.538 E2.27065
G1 X61.398 Y51.002 E2.28473
G1 X61.98 Y51.605 E2.30175
G1 X62.426 Y52.137 E2.31586
G1 X62.912 Y52.806 E2.33266
G1 X63.283 Y53.398 E2.34685
G1 X63.678 Y54.138 E2.36389
G1 X63.962 Y54.774 E2.37804
G1 X64.252 Y55.572 E2.39529
G1 X64.442 Y56.237 E2.40934
G1 X64.614 Y57.049 E2.4262
G1 X64.711 Y57.738 E2.44034
G1 X64.77 Y58.574 E2.45736
G1 X64.77 Y59.269 E2.47148
G1 X64.712 Y60.101 E2.48843
G1 X64.615 Y60.794 E2.50264
G1 X64.441 Y61.616 E2.51971
G1 X64.25 Y62.282 E2.53379
G1 X63.963 Y63.07 E2.55082
G1 X63.681 Y63.703 E2.5649
G1 X63.288 Y64.442 E2.58191
G1 X62.916 Y65.037 E2.59616
G1 X62.428 Y65.708 E2.61302
G1 X61.985 Y66.237 E2.62703
G1 X61.403 Y66.841 E2.64407
G1 X60.885 Y67.308 E2.65824
G1 X60.217 Y67.83 E2.67547
G1 X59.639 Y68.219 E2.68962
G1 X58.927 Y68.63 E2.70632
G1 X58.302 Y68.936 E2.72046
G1 X57.504 Y69.258 E2.73794
G1 X56.846 Y69.47 E2.75198
G1 X56.051 Y69.667 E2.76862
G1 X55.361 Y69.789 E2.78286
G1 X54.533 Y69.877 E2.79977
G1 X53.841 Y69.902 E2.81384
G1 X52.995 Y69.873 E2.83104
G1 X52.303 Y69.8 E2.84518
G1 X51.475 Y69.653 E2.86226
G1 X50.8 Y69.484 E2.8764
G1 X50.015 Y69.23 E2.89316
G1 X49.367 Y68.969 E2.90735
G1 X48.608 Y68.599 E2.9245
M204 S429
G1 F1500 E-3.5755
G0 F3750 X45.901 Y65.09
M204 S1000
G1 F1500 E2.9245
G1 F1200 X45.49 Y64.524 E2.93871
G1 X45.114 Y63.921 E2.95315
G1 X44.789 Y63.307 E2.96726
G1 X44.507 Y62.673 E2.98136
G1 X44.27 Y62.022 E2.99543
G1 X44.076 Y61.346 E3.00972
G1 X43.931 Y60.664 E3.02389
G1 X43.834 Y59.973 E3.03806
G1 X43.785 Y59.283 E3.05212
G1 X43.785 Y58.571 E3.06658
G1 X43.834 Y57.877 E3.08071
G1 X43.931 Y57.184 E3.09493
G1 X44.076 Y56.502 E3.10909
G1 X44.269 Y55.828 E3.12334
G1 X44.506 Y55.176 E3.13743
G1 X44.789 Y54.54 E3.15157
G1 X45.114 Y53.926 E3.16569
G1 X45.492 Y53.319 E3.18021
G1 X45.903 Y52.754 E3.19441
G1 X46.354 Y52.218 E3.20864
G1 X46.835 Y51.72 E3.2227
G1 X47.356 Y51.25 E3.23696
G1 X47.906 Y50.82 E3.25114
G1 X48.489 Y50.427 E3.26543
G1 X49.088 Y50.081 E3.27948
G1 X49.726 Y49.77 E3.2939
G1 X50.374 Y49.509 E3.30809
G1 X51.033 Y49.295 E3.32217
G1 X51.708 Y49.126 E3.3363
G1 X52.403 Y49.003 E3.35064
G1 X53.095 Y48.93 E3.36478
G1 X53.799 Y48.905 E3.37909
G1 X54.491 Y48.929 E3.39315
G1 X55.194 Y49.003 E3.40752
G1 X55.884 Y49.125 E3.42175
G1 X56.558 Y49.293 E3.43586
G1 X57.216 Y49.506 E3.44991
G1 X57.88 Y49.774 E3.46446
G1 X58.505 Y50.08 E3.4786
G1 X59.103 Y50.426 E3.49263
G1 X59.681 Y50.815 E3.50679
G1 X60.241 Y51.252 E3.52122
G1 X60.756 Y51.716 E3.5353
G1 X61.244 Y52.222 E3.54958
G1 X61.69 Y52.754 E3.56368
G1 X62.099 Y53.316 E3.5778
G1 X62.47 Y53.908 E3.592
G1 X62.801 Y54.529 E3.60629
G1 X63.085 Y55.165 E3.62044
G1 X63.329 Y55.835 E3.63493
G1 X63.519 Y56.5 E3.64898
G1 X63.664 Y57.182 E3.66314
G1 X63.761 Y57.871 E3.67728
G1 X63.81 Y58.574 E3.6916
G1 X63.81 Y59.269 E3.70572
G1 X63.761 Y59.968 E3.71995
G1 X63.664 Y60.661 E3.73417
G1 X63.518 Y61.351 E3.74849
G1 X63.327 Y62.017 E3.76257
G1 X63.086 Y62.679 E3.77688
G1 X62.804 Y63.312 E3.79096
G1 X62.474 Y63.933 E3.80525
G1 X62.102 Y64.528 E3.8195
G1 X61.692 Y65.092 E3.83367
G1 X61.249 Y65.621 E3.84769
G1 X60.76 Y66.128 E3.862
G1 X60.242 Y66.595 E3.87616
G1 X59.681 Y67.033 E3.89062
G1 X59.103 Y67.422 E3.90478
G1 X58.505 Y67.768 E3.91881
G1 X57.88 Y68.074 E3.93295
G1 X57.21 Y68.344 E3.94763
G1 X56.552 Y68.556 E3.96167
G1 X55.884 Y68.722 E3.97565
G1 X55.194 Y68.844 E3.98989
G1 X54.498 Y68.918 E4.00411
G1 X53.806 Y68.943 E4.01817
G1 X53.095 Y68.918 E4.03263
G1 X52.403 Y68.845 E4.04676
G1 X51.708 Y68.722 E4.0611
G1 X51.033 Y68.553 E4.07524
G1 X50.374 Y68.339 E4.08931
G1 X49.726 Y68.078 E4.10351
G1 X49.088 Y67.767 E4.11793
G1 X48.489 Y67.421 E4.13198
G1 X47.906 Y67.028 E4.14626
G1 X47.356 Y66.598 E4.16045
G1 X46.835 Y66.128 E4.1747
G1 X46.354 Y65.63 E4.18877
G1 X45.901 Y65.09 E4.20309
M204 S429
G1 F1500 E-2.29691
G0 F3750 X42.668 Y61.646
M204 S1000
G1 F1500 E4.20309
G1 F1200 X42.523 Y60.964 E4.21725
G1 X42.397 Y60.075 E4.23549
G1 X42.348 Y59.385 E4.24954
G1 X42.348 Y58.47 E4.26813
G1 X42.397 Y57.776 E4.28227
G1 X42.523 Y56.884 E4.30057
G1 X42.668 Y56.202 E4.31473
G1 X42.916 Y55.336 E4.33303
G1 X43.153 Y54.684 E4.34713
G1 X43.516 Y53.867 E4.36529
G1 X43.841 Y53.253 E4.3794
G1 X44.328 Y52.472 E4.3981
G1 X44.739 Y51.907 E4.41229
G1 X45.318 Y51.217 E4.43059
G1 X45.799 Y50.719 E4.44466
G1 X46.469 Y50.116 E4.46297
G1 X47.019 Y49.686 E4.47715
G1 X47.769 Y49.18 E4.49553
G1 X48.368 Y48.834 E4.50959
G1 X49.188 Y48.434 E4.52812
G1 X49.836 Y48.173 E4.54231
G1 X50.683 Y47.898 E4.56041
G1 X51.358 Y47.729 E4.57454
G1 X52.252 Y47.571 E4.59298
G1 X52.944 Y47.498 E4.60712
G1 X53.849 Y47.466 E4.62552
G1 X54.541 Y47.49 E4.63958
G1 X55.444 Y47.585 E4.65803
G1 X56.134 Y47.707 E4.67227
G1 X57.002 Y47.923 E4.69044
G1 X57.66 Y48.136 E4.70449
G1 X58.513 Y48.481 E4.72318
G1 X59.138 Y48.787 E4.73732
G1 X59.907 Y49.231 E4.75536
G1 X60.485 Y49.62 E4.76951
G1 X61.204 Y50.182 E4.78805
G1 X61.719 Y50.646 E4.80213
G1 X62.348 Y51.297 E4.82052
G1 X62.794 Y51.829 E4.83463
G1 X63.319 Y52.551 E4.85276
G1 X63.69 Y53.143 E4.86696
G1 X64.116 Y53.942 E4.88535
G1 X64.4 Y54.578 E4.8995
G1 X64.714 Y55.44 E4.91814
G1 X64.904 Y56.105 E4.93219
G1 X65.09 Y56.982 E4.9504
G1 X65.187 Y57.671 E4.96454
G1 X65.25 Y58.574 E4.98293
G1 X65.25 Y59.269 E4.99705
G1 X65.187 Y60.167 E5.01533
G1 X65.09 Y60.86 E5.02955
G1 X64.902 Y61.748 E5.04799
G1 X64.711 Y62.414 E5.06206
G1 X64.401 Y63.265 E5.08046
G1 X64.119 Y63.898 E5.09454
G1 X63.695 Y64.696 E5.1129
G1 X63.323 Y65.291 E5.12716
G1 X62.796 Y66.016 E5.14537
G1 X62.353 Y66.545 E5.15938
G1 X61.724 Y67.198 E5.1778
G1 X61.206 Y67.665 E5.19197
G1 X60.485 Y68.228 E5.21055
G1 X59.907 Y68.617 E5.22471
G1 X59.138 Y69.061 E5.24275
G1 X58.513 Y69.367 E5.25689
G1 X57.651 Y69.715 E5.27577
G1 X56.993 Y69.927 E5.28981
G1 X56.134 Y70.14 E5.30779
G1 X55.444 Y70.262 E5.32203
G1 X54.55 Y70.357 E5.34029
G1 X53.858 Y70.382 E5.35436
G1 X52.944 Y70.35 E5.37294
G1 X52.252 Y70.277 E5.38708
G1 X51.358 Y70.119 E5.40552
G1 X50.683 Y69.95 E5.41966
G1 X49.836 Y69.675 E5.43775
G1 X49.188 Y69.414 E5.45194
G1 X48.368 Y69.014 E5.47047
G1 X47.769 Y68.668 E5.48453
G1 X47.019 Y68.162 E5.50291
G1 X46.469 Y67.732 E5.51709
G1 X45.799 Y67.129 E5.5354
G1 X45.318 Y66.631 E5.54947
G1 X44.736 Y65.936 E5.56788
G1 X44.325 Y65.37 E5.58209
G1 X43.841 Y64.594 E5.60067
G1 X43.516 Y63.98 E5.61479
G1 X43.154 Y63.166 E5.63289
G1 X42.917 Y62.515 E5.64696
G1 X42.668 Y61.646 E5.66533
M204 S429
G0 F3750 X43.306 Y58.537
M204 S1000
G1 F1200 X43.355 Y57.843 E5.67946
G1 X43.462 Y57.084 E5.69503
G1 X43.607 Y56.402 E5.7092
G1 X43.818 Y55.664 E5.72479
G1 X44.055 Y55.012 E5.73888
G1 X44.364 Y54.316 E5.75435
G1 X44.689 Y53.702 E5.76847
G1 X45.104 Y53.037 E5.78439
G1 X45.515 Y52.472 E5.79859
G1 X46.009 Y51.884 E5.81419
G1 X46.49 Y51.386 E5.82825
G1 X47.06 Y50.872 E5.84384
G1 X47.61 Y50.442 E5.85803
G1 X48.249 Y50.011 E5.87369
G1 X48.848 Y49.665 E5.88774
G1 X49.547 Y49.325 E5.90353
G1 X50.195 Y49.064 E5.91772
G1 X50.916 Y48.829 E5.93313
G1 X51.591 Y48.66 E5.94726
G1 X52.353 Y48.525 E5.96299
G1 X53.045 Y48.452 E5.97712
G1 X53.815 Y48.425 E5.99277
G1 X54.507 Y48.449 E6.00684
G1 X55.277 Y48.53 E6.02257
G1 X55.967 Y48.652 E6.03681
G1 X56.706 Y48.836 E6.05228
G1 X57.364 Y49.049 E6.06633
G1 X58.091 Y49.343 E6.08226
G1 X58.716 Y49.649 E6.0964
G1 X59.371 Y50.028 E6.11177
G1 X59.949 Y50.417 E6.12592
G1 X60.562 Y50.895 E6.14172
G1 X61.077 Y51.359 E6.1558
G1 X61.612 Y51.914 E6.17146
G1 X62.058 Y52.446 E6.18556
G1 X62.505 Y53.061 E6.20101
G1 X62.876 Y53.653 E6.2152
G1 X63.239 Y54.333 E6.23086
G1 X63.523 Y54.969 E6.24501
G1 X63.791 Y55.704 E6.2609
G1 X63.981 Y56.369 E6.27495
G1 X64.139 Y57.115 E6.29045
G1 X64.236 Y57.804 E6.30458
G1 X64.29 Y58.574 E6.32026
G1 X64.29 Y59.269 E6.33438
G1 X64.237 Y60.034 E6.34996
G1 X64.14 Y60.727 E6.36418
G1 X63.979 Y61.484 E6.3799
G1 X63.788 Y62.15 E6.39397
G1 X63.524 Y62.874 E6.40963
G1 X63.242 Y63.507 E6.42371
G1 X62.881 Y64.187 E6.43935
G1 X62.509 Y64.782 E6.4536
G1 X62.06 Y65.4 E6.46912
G1 X61.617 Y65.929 E6.48314
G1 X61.081 Y66.485 E6.49883
G1 X60.563 Y66.952 E6.513
G1 X59.949 Y67.431 E6.52882
G1 X59.371 Y67.82 E6.54297
G1 X58.716 Y68.199 E6.55835
G1 X58.091 Y68.505 E6.57248
G1 X57.357 Y68.801 E6.58856
G1 X56.699 Y69.013 E6.60261
G1 X55.967 Y69.195 E6.61793
G1 X55.277 Y69.317 E6.63217
G1 X54.515 Y69.397 E6.64773
G1 X53.823 Y69.422 E6.6618
G1 X53.045 Y69.396 E6.67761
G1 X52.353 Y69.323 E6.69175
G1 X51.591 Y69.188 E6.70747
G1 X50.916 Y69.019 E6.72161
G1 X50.195 Y68.784 E6.73701
G1 X49.547 Y68.523 E6.7512
G1 X48.848 Y68.183 E6.767
G1 X48.249 Y67.837 E6.78105
G1 X47.61 Y67.406 E6.79671
G1 X47.06 Y66.976 E6.81089
G1 X46.49 Y66.462 E6.82648
G1 X46.009 Y65.964 E6.84055
G1 X45.512 Y65.372 E6.85625
G1 X45.101 Y64.806 E6.87046
G1 X44.689 Y64.145 E6.88628
G1 X44.364 Y63.531 E6.9004
G1 X44.056 Y62.837 E6.91582
G1 X43.819 Y62.186 E6.9299
G1 X43.607 Y61.446 E6.94554
G1 X43.462 Y60.764 E6.9597
G1 X43.355 Y60.007 E6.97523
G1 X43.306 Y59.317 E6.98929
G1 X43.306 Y58.537 E7.00513
M204 S429
G0 F3750 X44.263 Y58.605
M204 S1000
G1 F1200 X44.312 Y57.911 E7.01927
G1 X44.401 Y57.284 E7.03213
G1 X44.546 Y56.602 E7.0463
G1 X44.72 Y55.992 E7.05918
G1 X44.957 Y55.34 E7.07328
G1 X45.213 Y54.765 E7.08606
G1 X45.538 Y54.151 E7.10018
G1 X45.88 Y53.602 E7.11332
G1 X46.291 Y53.037 E7.12751
G1 X46.699 Y52.551 E7.1404
G1 X47.18 Y52.053 E7.15447
G1 X47.651 Y51.629 E7.16734
G1 X48.201 Y51.199 E7.18152
G1 X48.729 Y50.842 E7.19447
G1 X49.328 Y50.496 E7.20853
G1 X49.905 Y50.215 E7.22156
G1 X50.553 Y49.954 E7.23576
G1 X51.149 Y49.761 E7.24848
G1 X51.824 Y49.592 E7.26262
G1 X52.454 Y49.48 E7.27562
G1 X53.146 Y49.407 E7.28975
G1 X53.782 Y49.385 E7.30268
G1 X54.474 Y49.409 E7.31675
G1 X55.11 Y49.476 E7.32974
G1 X55.8 Y49.598 E7.34398
G1 X56.41 Y49.75 E7.35675
G1 X57.068 Y49.963 E7.3708
G1 X57.669 Y50.206 E7.38397
G1 X58.294 Y50.512 E7.39811
G1 X58.835 Y50.824 E7.41079
G1 X59.413 Y51.213 E7.42495
G1 X59.919 Y51.608 E7.43799
G1 X60.434 Y52.072 E7.45207
G1 X60.876 Y52.53 E7.465
G1 X61.322 Y53.062 E7.4791
G1 X61.692 Y53.571 E7.49189
G1 X62.063 Y54.163 E7.50608
G1 X62.363 Y54.725 E7.51902
G1 X62.647 Y55.361 E7.53317
G1 X62.868 Y55.967 E7.54628
G1 X63.058 Y56.632 E7.56033
G1 X63.188 Y57.249 E7.57314
G1 X63.285 Y57.938 E7.58727
G1 X63.33 Y58.574 E7.60023
G1 X63.33 Y59.269 E7.61435
G1 X63.286 Y59.901 E7.62722
G1 X63.189 Y60.594 E7.64143
G1 X63.056 Y61.219 E7.65441
G1 X62.865 Y61.885 E7.66849
G1 X62.647 Y62.484 E7.68144
G1 X62.365 Y63.117 E7.69552
G1 X62.067 Y63.678 E7.70842
G1 X61.695 Y64.273 E7.72268
G1 X61.324 Y64.784 E7.73551
G1 X60.881 Y65.313 E7.74952
G1 X60.438 Y65.772 E7.76248
G1 X59.92 Y66.239 E7.77665
G1 X59.413 Y66.635 E7.78972
G1 X58.835 Y67.024 E7.80388
G1 X58.294 Y67.336 E7.81656
G1 X57.669 Y67.642 E7.8307
G1 X57.062 Y67.887 E7.844
G1 X56.404 Y68.099 E7.85804
G1 X55.8 Y68.249 E7.87069
G1 X55.11 Y68.371 E7.88492
G1 X54.481 Y68.438 E7.89777
G1 X53.789 Y68.463 E7.91184
G1 X53.146 Y68.441 E7.92491
G1 X52.454 Y68.368 E7.93904
G1 X51.824 Y68.256 E7.95204
G1 X51.149 Y68.087 E7.96618
G1 X50.553 Y67.894 E7.97891
G1 X49.905 Y67.633 E7.9931
G1 X49.328 Y67.352 E8.00614
G1 X48.729 Y67.006 E8.02019
G1 X48.201 Y66.649 E8.03314
G1 X47.651 Y66.219 E8.04732
G1 X47.18 Y65.795 E8.0602
G1 X46.699 Y65.297 E8.07426
G1 X46.289 Y64.808 E8.08723
G1 X45.878 Y64.242 E8.10144
